static/logos/livechat-glyph-color.svg

<svg width="50" height="49" viewBox="0 0 50 49" fill="none" xmlns="http://www.w3.org/2000/svg">
<g clip-path="url(#clip0_1_2154)">
<path d="M37.0561 8.30721C28.8085 7.71479 19.6218 7.71481 11.374 8.30721C9.64755 8.43123 8.3394 9.75323 8.2096 11.3691C7.79327 16.5513 7.73789 24.3152 8.11963 29.4921C8.24573 31.2021 9.74703 32.6698 11.7781 32.6698H18.1452V40.5242L11.7911 40.5197C5.96206 40.5197 0.729968 36.1992 0.278015 30.0703C-0.133445 24.4906 -0.0766146 16.3229 0.371929 10.7395C0.821453 5.14386 5.32103 0.858834 10.8107 0.464519C19.4335 -0.154838 28.9968 -0.154841 37.6195 0.464518C43.1092 0.858831 47.6089 5.14386 48.0584 10.7395C48.5069 16.3229 48.4873 24.4906 48.0758 30.0703C47.6239 36.1992 42.4039 40.5373 36.5748 40.5373L30.2865 40.5327L18.1452 48.3871V40.5242L30.2865 32.6698H36.5758C38.6068 32.6698 40.1081 31.2021 40.2342 29.4921C40.616 24.3152 40.6369 16.5513 40.2206 11.3691C40.0908 9.75323 38.7827 8.43123 37.0561 8.30721Z" fill="#FE5000"/>
</g>
<defs>
<clipPath id="clip0_1_2154">
<rect width="50" height="48.3871" fill="white"/>
</clipPath>
</defs>
</svg>

<svg xmlns="http://www.w3.org/2000/svg" width="65.306" height="64" fill="none" viewBox="0 0 50 49"><g clip-path="url(#a)"><path fill="#FE5000" d="M37.056 8.307c-8.247-.592-17.434-.592-25.682 0-1.726.124-3.035 1.446-3.164 3.062-.417 5.182-.472 12.946-.09 18.123.126 1.71 1.627 3.178 3.658 3.178h6.367v7.854l-6.354-.004C5.962 40.52.73 36.2.278 30.07c-.411-5.58-.355-13.747.094-19.33C.822 5.143 5.32.858 10.81.464c8.622-.62 18.186-.62 26.809 0 5.49.394 9.989 4.679 10.438 10.274.449 5.584.43 13.752.018 19.331-.452 6.13-5.672 10.467-11.501 10.467l-6.289-.004-12.14 7.854v-7.863l12.14-7.854h6.29c2.03 0 3.532-1.468 3.658-3.178.382-5.177.403-12.94-.013-18.123-.13-1.616-1.438-2.938-3.165-3.062Z"/></g><defs><clipPath id="a"><path fill="#fff" d="M0 0h50v48.387H0z"/></clipPath></defs></svg>
